X:1
T:Gigue_Rachel_Kolly.wav
L:1/16
Q:1/4=137
M:3/8
I:linebreak $
K:F
V:1 treble 
V:1
 z2 z2 A2 | (D2 F2) A2 | (d2 e2) f2 | e2 (gf ed) | (^c2 A2) E2 | (^C2 E2) A2 | (e2 f2) g2 | %7
 f2 (ag fe) | (d2 A2) F2 | D2 fe df | ba gf ed | cd ed ce | ag fe dc | Bc dc Bd | (gf) ed ^c=B | %15
 A=B ^cB Ac | ed ^c=B AG | F(A GF ED) | A,2 (!tenuto!d2 !tenuto!^c2) | D4 z2 | %20

